img/arrow-52.svg

<svg fill="none" height="16" viewBox="0 0 14 16" width="14" xmlns="http://www.w3.org/2000/svg"><path d="m6.40134 15.4756c.33063.3306.86669.3306 1.19732 0l5.38794-5.3879c.3306-.33062.3306-.86668 0-1.19731-.3307-.33062-.8667-.33062-1.1974 0l-4.7892 4.78921-4.78925-4.78921c-.33063-.33062-.86668-.33062-1.19731 0-.330628.33063-.330628.86669 0 1.19731zm1.44529-14.14468c0-.467584-.37905-.846632-.84663-.846632s-.84663.379048-.84663.846632zm0 13.54608v-13.54608h-1.69326v13.54608z" fill="#fff"/></svg>

<svg width="14" height="16" viewBox="0 0 14 16" fill="none" xmlns="http://www.w3.org/2000/svg">
<path d="M6.40134 15.4756C6.73197 15.8062 7.26803 15.8062 7.59866 15.4756L12.9866 10.0877C13.3172 9.75708 13.3172 9.22102 12.9866 8.89039C12.6559 8.55977 12.1199 8.55977 11.7892 8.89039L7 13.6796L2.21075 8.89039C1.88012 8.55977 1.34407 8.55977 1.01344 8.89039C0.682812 9.22102 0.682812 9.75708 1.01344 10.0877L6.40134 15.4756ZM7.84663 1.33092C7.84663 0.863336 7.46758 0.484288 7 0.484288C6.53242 0.484288 6.15337 0.863336 6.15337 1.33092H7.84663ZM7.84663 14.877L7.84663 1.33092H6.15337L6.15337 14.877H7.84663Z" fill="white"/>
</svg>
